interfaces/print.svg

<svg xmlns="http://www.w3.org/2000/svg" viewBox="0 0 16 16" class="symbol"><title>print</title><path d="M15.92 13.206l-.02-6.184a1.532 1.532 0 0 0-1.53-1.527h-1.382V4.009l-3.671-3H2.89v4.486h-1.4A1.532 1.532 0 0 0-.037 7.031l.018 6.174H2.89v2.334h10.1v-2.333zM3.955 2.053h4.674v2.541H12v2.8H3.955V2.053zM12 14.447H3.955v-2.728H12v2.728z" data-name="Layer 1"/></svg>

<svg xmlns="http://www.w3.org/2000/svg" viewBox="0 0 16 16"><defs><style>.cls-1{fill:#010101;}</style></defs><title>print</title><g id="Layer_1" data-name="Layer 1"><path class="cls-1" d="M15.92,13.206,15.9,7.022A1.532,1.532,0,0,0,14.37,5.495H12.988V4.009l-3.671-3H2.89V5.495h-1.4A1.532,1.532,0,0,0-.037,7.031l.018,6.174H2.89v2.334h10.1V13.206ZM3.955,2.053H8.629V4.594H12v2.8H3.955V2.053ZM12,14.447H3.955V11.719H12v2.728Z"/></g></svg>
